X: 21695
Q: "Moderate."
M: 2/4
L: 1/16
K: G
d2 |\
g2d2 d2(ef) | g2d2 d3g | e3d e2g2 | {f}a4 (g3f) |\
gb3 eg3 | d2(gf) (ed)(cB) | A3G A2B2 | G6 |]


